X: 115
T: 48 bar Jigs 2 - Paddy Carey’s
T: Me Mother's
R: jig
M: 6/8
L: 1/8
K: Gmaj
d | "G"g2G F2A| G2B "Am"AcA| "G/B"BdB "C"c2e|"D"d2g faf|
"G"g2G F2A| G2B "Am"AcA| "G/B"BdB "C"c2e| "D"def "G"g2:|
d| "G"g2b "D/F#"f2a| "Em"efg "G/D"d2B| "C"c2e "G/B"B2d| "Am"ABA "D"B2d|
"G"gbg "D/F#"faf| "C"ege "G/D"dcB| "Am"cde "D"d2B| "G"G2g g2:|
B/c/| "G"d2g "C"e2g| "G/B"d2g "C"e3| "G"ded "G/B"B2G| "C"A2G "D"FED| "G"d2g "C"e2g| "G/B"d2g "C"e3| "G"ded "G/B"d2g|"D"fef "G"g2:|
T:Paddy Carey
K:G
|: "G"D2G GFG | B2G GFG | "Am"E2A "D7"A2B | "C"cAG "D"FED |
"G"D2G GFG | B2G G2G | "D"FED DEF | "G"GAB "D7"A2G :|
|: "G"G2B "Am"c2e | "G/B"d2e dBG | "G"G2B "C"c2e | "G"dBG "D"A3 |
"G"G2B "Am"c2e | "G/B"d2e dBG | "C"G3 BAG |1 "D"FEF "G"G3 :|2 "D"FEF "G"G2B ||
|: "D7"c2A ABA | "G"B2G GAG | "D"F2G A2B | c2A "D"FED |"D7"c2A ABA | "G"B2G GAG | "D"FED DEF | "D(G)"GAB A2G :|
%%newpage

